icons/1_Primary/IGN.svg

<svg width="1024" height="1024" fill="none" xmlns="http://www.w3.org/2000/svg"><g clip-path="url(#a)"><path d="M512 1024c282.77 0 512-229.23 512-512S794.77 0 512 0 0 229.23 0 512s229.23 512 512 512Z" fill="#BA6561"/><path d="M357 410.37a183.818 183.818 0 0 1 52.92-52.92 711.929 711.929 0 0 1 12.18-75.17 248.336 248.336 0 0 0-140.5 140.5c22.25-5.15 47.54-9.13 75.17-12.18m256.88-53.86v.47a188.37 188.37 0 0 1 53.16 53.16A711.781 711.781 0 0 1 742 422.55a248.855 248.855 0 0 0-141-140.74 700.607 700.607 0 0 1 12.65 74.93ZM409.9 667.25a188.37 188.37 0 0 1-53.16-53.16H356c-27.87-3.28-52.92-7.49-74.7-12.64a248.168 248.168 0 0 0 140.73 141c-5.15-22.25-9.13-47.54-12.18-75.17m257.64-53.18h-.7a188.37 188.37 0 0 1-53.16 53.16v.7A695.403 695.403 0 0 1 601 742.65a247.977 247.977 0 0 0 85.439-55.761A247.977 247.977 0 0 0 742.2 601.45a675.973 675.973 0 0 1-74.7 12.65M466.1 231.23h91.33c19.9 43.32 28.1 107.48 30.44 129.26a82.573 82.573 0 0 1 1.41 14.75L512 444.56l-77.28-69.31a87.57 87.57 0 0 1 1.17-12.88C438.24 340.12 446 274.56 466.1 231m-31.37 417.75a87.57 87.57 0 0 0 1.17 12.88c2.34 22.25 10.1 87.81 30.2 131.37h91.33c19.9-43.09 28.1-107.48 30.44-129.26a83.137 83.137 0 0 0 1.41-15L512 579.44l-77.27 69.31Zm-59.48-214.26a87.57 87.57 0 0 0-12.88 1.17c-22.25 2.81-87.81 10.54-131.37 30.68v91.32c43.09 19.9 107.48 27.87 129.26 30.44a83.137 83.137 0 0 0 15 1.41l69.08-77.28L375.25 435v-.51ZM793 465.87c-43.56-20.14-109.12-27.87-131.37-30.21a87.57 87.57 0 0 0-12.88-1.17l-69.31 77.28L648.75 589a87.154 87.154 0 0 0 15-1.41c21.78-2.58 86.17-10.54 129.26-30.44l-.01-91.28Z" fill="#fff"/></g><defs><clipPath id="a"><path fill="#fff" d="M0 0h1024v1024H0z"/></clipPath></defs></svg>

<svg width="1024" height="1024" viewBox="0 0 1024 1024" fill="none" xmlns="http://www.w3.org/2000/svg">
<g clip-path="url(#clip0_2_2493)">
<path d="M512 1024C794.77 1024 1024 794.77 1024 512C1024 229.23 794.77 0 512 0C229.23 0 0 229.23 0 512C0 794.77 229.23 1024 512 1024Z" fill="#BA6561"/>
<path d="M357 410.37C370.824 389.288 388.838 371.274 409.92 357.45C412.636 332.194 416.702 307.101 422.1 282.28C390.27 294.765 361.362 313.689 337.185 337.865C313.009 362.042 294.085 390.95 281.6 422.78C303.85 417.63 329.14 413.65 356.77 410.6M613.65 356.74V357.21C634.762 371.178 652.842 389.258 666.81 410.37C692.073 413.085 717.172 417.151 742 422.55C729.459 390.644 710.462 361.673 686.198 337.454C661.935 313.236 632.929 294.292 601 281.81C606.569 306.539 610.792 331.553 613.65 356.74ZM409.9 667.25C388.788 653.282 370.708 635.202 356.74 614.09H356C328.13 610.81 303.08 606.6 281.3 601.45C293.744 633.399 312.674 662.423 336.895 686.691C361.117 710.959 390.105 729.945 422.03 742.45C416.88 720.2 412.9 694.91 409.85 667.28M667.49 614.1H666.79C652.822 635.212 634.742 653.292 613.63 667.26V667.96C610.78 693.068 606.564 718.001 601 742.65C633.037 730.186 662.132 711.197 686.439 686.889C710.747 662.582 729.736 633.487 742.2 601.45C717.556 607.06 692.617 611.283 667.5 614.1M466.1 231.23H557.43C577.33 274.55 585.53 338.71 587.87 360.49C588.781 365.354 589.253 370.291 589.28 375.24L512 444.56L434.72 375.25C434.792 370.934 435.183 366.629 435.89 362.37C438.24 340.12 446 274.56 466.1 231M434.73 648.75C434.802 653.066 435.193 657.371 435.9 661.63C438.24 683.88 446 749.44 466.1 793H557.43C577.33 749.91 585.53 685.52 587.87 663.74C588.793 658.793 589.265 653.772 589.28 648.74L512 579.44L434.73 648.75ZM375.25 434.49C370.934 434.562 366.629 434.953 362.37 435.66C340.12 438.47 274.56 446.2 231 466.34V557.66C274.09 577.56 338.48 585.53 360.26 588.1C365.207 589.023 370.228 589.495 375.26 589.51L444.34 512.23L375.25 435V434.49ZM793 465.87C749.44 445.73 683.88 438 661.63 435.66C657.371 434.953 653.066 434.562 648.75 434.49L579.44 511.77L648.75 589C653.781 588.964 658.8 588.492 663.75 587.59C685.53 585.01 749.92 577.05 793.01 557.15L793 465.87Z" fill="white"/>
</g>
<defs>
<clipPath id="clip0_2_2493">
<rect width="1024" height="1024" fill="white"/>
</clipPath>
</defs>
</svg>
